src/components/Icon/icons/trash-icon.svg

<svg width="30" height="30" viewBox="0 0 30 30" fill="none" xmlns="http://www.w3.org/2000/svg">
<path fill-rule="evenodd" clip-rule="evenodd" d="M13.3816 6.03396C12.8482 5.89101 12.2998 6.2076 12.1569 6.74106L11.6392 8.67295L8.25858 7.76711C7.72511 7.62417 7.17678 7.94075 7.03383 8.47422C6.89089 9.00768 7.20747 9.55602 7.74094 9.69896L20.9253 13.2317L19.0859 21.6072C19.0356 21.8365 18.8324 21.9999 18.5976 21.9999H11.4018C11.167 21.9999 10.9638 21.8365 10.9134 21.6072L8.98046 12.8038C8.87215 12.2623 8.34532 11.911 7.80376 12.0194C7.2622 12.1277 6.91098 12.6545 7.0193 13.1961L9.1993 23.1961C9.29278 23.6635 9.7032 23.9999 10.1799 23.9999H19.8195C20.2962 23.9999 20.7066 23.6635 20.8001 23.1961L22.8597 13.75L23.1958 13.8401C23.7292 13.983 24.2776 13.6664 24.4205 13.133C24.5634 12.5995 24.2469 12.0512 23.7134 11.9082L20.3326 11.0023L20.8502 9.07043C20.9932 8.53697 20.6766 7.98863 20.1431 7.84569L13.3816 6.03396ZM18.4007 10.4847L18.6595 9.51872L13.8299 8.22463L13.5711 9.19059L18.4007 10.4847Z" class="--primary-fill-color"/>
<path fill-rule="evenodd" clip-rule="evenodd" d="M12.9996 14C13.5519 14 13.9996 14.4477 13.9996 15V18C13.9996 18.5523 13.5519 19 12.9996 19C12.4473 19 11.9996 18.5523 11.9996 18V15C11.9996 14.4477 12.4473 14 12.9996 14Z" class="--secondary-fill-color"/>
<path fill-rule="evenodd" clip-rule="evenodd" d="M16.9996 14C17.5519 14 17.9996 14.4477 17.9996 15V18C17.9996 18.5523 17.5519 19 16.9996 19C16.4473 19 15.9996 18.5523 15.9996 18V15C15.9996 14.4477 16.4473 14 16.9996 14Z" class="--secondary-fill-color"/>
</svg>

<svg xmlns="http://www.w3.org/2000/svg" width="30" height="30" fill="none" viewBox="0 0 30 30">
    <path fill="#00B559" fill-rule="evenodd" d="M13.382 6.034c-.533-.143-1.082.174-1.225.707l-.517 1.932-3.38-.906c-.534-.143-1.083.174-1.226.707-.143.534.174 1.082.707 1.225l13.185 3.533-1.84 8.375c-.05.23-.253.393-.488.393h-7.196c-.234 0-.438-.163-.488-.393L8.98 12.804c-.108-.542-.635-.893-1.177-.784-.541.108-.893.635-.784 1.176l2.18 10c.093.468.504.804.98.804h9.64c.477 0 .887-.336.98-.804l2.06-9.446.336.09c.534.143 1.082-.174 1.225-.707.143-.533-.174-1.082-.707-1.225l-3.38-.906.517-1.931c.143-.534-.174-1.082-.707-1.225l-6.762-1.812zm5.02 4.45l.258-.965-4.83-1.294-.258.966 4.83 1.294z" clip-rule="evenodd"/>
</svg>
